X: 4
T: Missa Almana / Gloria
N: Derived from Rue1002b-Missa_Almana-Gloria.krn
C: Pierre de la Rue
%%abc-version 2.0
%%abcx-abcm2ps-target-version 5.9.1 (29 Sep 2008)
%%abc-creator hum2abc beta
%%abcx-conversion-date 2019/02/17 08:01:09
%%abc-edited-by Jesse Rodin
%%abc-edited-by Chris Gage 11-16-2012
%%abcx-initial-encoding-date 2012/11/17/
%%humdrum-veritas 4098925657
%%humdrum-veritas-data 3187256448
%%linebreak <none>
%%barnumbers 0
L: 1/4
M: 2/1
Q: 1/2=120
%%staves [1 2 3 4]
V: 1 clef=treble
V: 2 clef=treble-8
V: 3 clef=treble-8
V: 4 clef=bass
K: F
[V:1] z8 | 
[V:2] F8 | 
[V:3] z8 | 
[V:4] z8 | 
[V:1] z8 | 
[V:2] B4B4 | 
[V:3] z8 | 
[V:4] z8 | 
[V:1] C8 | 
[V:2] A4A2Bc | 
[V:3] z8 | 
[V:4] z8 | 
[V:1] F4F4 | 
[V:2] d4d4 | 
[V:3] z8 | 
[V:4] z8 | 
[V:1] E4E2FG | 
[V:2] c2c3BAG | 
[V:3] z8 | 
[V:4] z8 | 
[V:1] A4A4 | 
[V:2] F3GABA2- | 
[V:3] z8 | 
[V:4] F,,8 | 
[V:1] F2G3FED | 
[V:2] A2GFG4 | 
[V:3] z8 | 
[V:4] B,,4B,,4 | 
[V:1] C4c4 | 
[V:2] A3Bcdc2- | 
[V:3] z8 | 
[V:4] A,,4A,,2B,,C, | 
[V:1] A2B3AGF | 
[V:2] c2BAB4 | 
[V:3] z8 | 
[V:4] D,4D,4 | 
[V:1] E2F4E2 | 
[V:2] c2A2G4 | 
[V:3] z8 | 
[V:4] C,8 | 
[V:1] F8 | 
[V:2] z4A4 | 
[V:3] F8- | 
[V:4] z4F,,4 | 
[V:1] z4F4- | 
[V:2] B3cd4- | 
[V:3] F8 | 
[V:4] B,,6C,2 | 
[V:1] F4G4 | 
[V:2] d2G2G4- | 
[V:3] B8 | 
[V:4] D,4_E,4- | 
[V:1] G4F4- | 
[V:2] G4d4- | 
[V:3] B4B4 | 
[V:4] E,4D,4- | 
[V:1] F4D2F2- | 
[V:2] d4d4 | 
[V:3] A8- | 
[V:4] D,8 | 
[V:1] F2EDC4- | 
[V:2] c3de4 | 
[V:3] A8 | 
[V:4] A,,8 | 
[V:1] C4A4- | 
[V:2] f6e2 | 
[V:3] A4A2Bc | 
[V:4] F,8 | 
[V:1] A4B4 | 
[V:2] d2c2B2A2 | 
[V:3] d8 | 
[V:4] F,4G,4- | 
[V:1] B4A4- | 
[V:2] G4A4- | 
[V:3] d4d4 | 
[V:4] G,4F,4- | 
[V:1] A4A4 | 
[V:2] A4F3G | 
[V:3] c8- | 
[V:4] F,4F,4 | 
[V:1] E4z2G2 | 
[V:2] A2G3FED | 
[V:3] c8 | 
[V:4] C,4C,3D, | 
[V:1] G2F2E2G2- | 
[V:2] C2c4BA | 
[V:3] c8 | 
[V:4] E,2F,2C,3D, | 
[V:1] G2F2E2G2- | 
[V:2] G2A2G2E2 | 
[V:3] c4c4- | 
[V:4] E,2F,2C,3D, | 
[V:1] G2FED2D2 | 
[V:2] G2A2B4 | 
[V:3] c4B4 | 
[V:4] E,2F,2G,4 | 
[V:1] C8 | 
[V:2] z2A4GF | 
[V:3] c8 | 
[V:4] C,4z2C,2 | 
[V:1] z8 | 
[V:2] E2D2F4 | 
[V:3] z8 | 
[V:4] C,2B,,2A,,2C,2- | 
[V:1] z8 | 
[V:2] E2D2F3E/F/ | 
[V:3] z8 | 
[V:4] C,2B,,2A,,2C,2- | 
[V:1] z8 | 
[V:2] GCF4E2 | 
[V:3] z8 | 
[V:4] C,2B,,A,,G,,2G,,2 | 
[V:1] z2A4GF | 
[V:2] F8 | 
[V:3] z4z2c2 | 
[V:4] F,,8 | 
[V:1] E2D2F4 | 
[V:2] z8 | 
[V:3] c2B2A2c2- | 
[V:4] z8 | 
[V:1] E2D2F3E/F/ | 
[V:2] z8 | 
[V:3] c2B2A2c2- | 
[V:4] z8 | 
[V:1] GCF4E2 | 
[V:2] z8 | 
[V:3] c2BAG2G2 | 
[V:4] z8 | 
[V:1] F8- | 
[V:2] z2D2C2D2- | 
[V:3] F8- | 
[V:4] z2B,,2A,,2B,,2- | 
[V:1] F8 | 
[V:2] DEF4ED | 
[V:3] F8 | 
[V:4] B,,C,D,4C,B,, | 
[V:1] z8 | 
[V:2] C2D2z2G2 | 
[V:3] z8 | 
[V:4] A,,2B,,2C,4 | 
[V:1] z8 | 
[V:2] F2G4FE | 
[V:3] z8 | 
[V:4] z4z2C,2 | 
[V:1] z8 | 
[V:2] D2E2C2c2- | 
[V:3] G8 | 
[V:4] B,,2C,4B,,A,, | 
[V:1] z4z2F2 | 
[V:2] c2=B2c4- | 
[V:3] G4A4- | 
[V:4] G,,4z4 | 
[V:1] E2F3GA2 | 
[V:2] c4c4 | 
[V:3] A4A4- | 
[V:4] z8 | 
[V:1] A2GFE2F2 | 
[V:2] c8 | 
[V:3] A4A4 | 
[V:4] z8 | 
[V:1] G4G,4 | 
[V:2] d8- | 
[V:3] B8- | 
[V:4] z8 | 
[V:1] z2G2F2G2- | 
[V:2] d8 | 
[V:3] B8 | 
[V:4] z8 | 
[V:1] G2FED3E | 
[V:2] d8 | 
[V:3] B8 | 
[V:4] z4G,4 | 
[V:1] FGA3Bc2- | 
[V:2] z8 | 
[V:3] A4z2A2 | 
[V:4] D,3E,F,3E,/D,/ | 
[V:1] cBAGFEc2- | 
[V:2] z8 | 
[V:3] c3B/c/d2A2 | 
[V:4] C,2F,3F,F,2- | 
[V:1] cBA4G2 | 
[V:2] z8 | 
[V:3] c2d2B4 | 
[V:4] F,2F,2D,2E,2 | 
[V:1] A4z2A,2 | 
[V:2] z8 | 
[V:3] A2FGABc2- | 
[V:4] F,2D,4C,B,, | 
[V:1] C3B,/C/D2A,2 | 
[V:2] z8 | 
[V:3] cBAGFEc2- | 
[V:4] A,,4z4 | 
[V:1] C3DB,4 | 
[V:2] z2F2D2E2 | 
[V:3] cBA4G2 | 
[V:4] z8 | 
[V:1] A,8 | 
[V:2] F2D4C2 | 
[V:3] A8 | 
[V:4] z2F,2D,2E,2 | 
[V:1] z8 | 
[V:2] D4z2A2- | 
[V:3] z8 | 
[V:4] F,2D,4C,2 | 
[V:1] z8 | 
[V:2] A2B4AG | 
[V:3] z8 | 
[V:4] D,4z2D,2- | 
[V:1] z8 | 
[V:2] F2G4B2- | 
[V:3] z8 | 
[V:4] D,B,,_E,4D,C, | 
[V:1] z8 | 
[V:2] B2A2G2c2- | 
[V:3] z8 | 
[V:4] B,,2F,4E,2- | 
[V:1] z8 | 
[V:2] c2B3Ac2- | 
[V:3] z8 | 
[V:4] E,D,G,4F,2 | 
[V:1] z8 | 
[V:2] c2B2A2d2- | 
[V:3] z8 | 
[V:4] E,2G,4F,2 | 
[V:1] z8 | 
[V:2] d2c4=B2 | 
[V:3] z8 | 
[V:4] E,2C,2D,4 | 
[V:1] E8 | 
[V:2] c8- | 
[V:3] z4A4 | 
[V:4] C,8- | 
[V:1] E4E4- | 
[V:2] c8 | 
[V:3] G4A4 | 
[V:4] C,8- | 
[V:1] E4E4 | 
[V:2] c8 | 
[V:3] G4E4 | 
[V:4] C,8 | 
[V:1] F4D4 | 
[V:2] A8 | 
[V:3] z4F4 | 
[V:4] z4D,4 | 
[V:1] E4D4 | 
[V:2] z8 | 
[V:3] E4F4 | 
[V:4] C,4D,4 | 
[V:1] E8 | 
[V:2] z8 | 
[V:3] E4C4 | 
[V:4] C,4A,,4 | 
[V:1] D8 | 
[V:2] z4d4 | 
[V:3] z4F4- | 
[V:4] z4B,,4 | 
[V:1] z4F4- | 
[V:2] c4d4 | 
[V:3] F4F4- | 
[V:4] A,,4B,,4 | 
[V:1] F4A4 | 
[V:2] c4A4 | 
[V:3] F4F4- | 
[V:4] A,,4F,,2F,,2 | 
[V:1] B8 | 
[V:2] d4B3c | 
[V:3] F4E4 | 
[V:4] G,,4G,,4 | 
[V:1] A8 | 
[V:2] d2c4F2 | 
[V:3] F4z2F2 | 
[V:4] F,,8 | 
[V:1] F3GABA2- | 
[V:2] F4z4 | 
[V:3] A3Bc2c2- | 
[V:4] z8 | 
[V:1] A2F4E2 | 
[V:2] z8 | 
[V:3] c2BAG4 | 
[V:4] z4C,4 | 
[V:1] F8 | 
[V:2] B3cd_ed2- | 
[V:3] F8 | 
[V:4] D,3E,F,2F,2- | 
[V:1] z4C4 | 
[V:2] d2B4A2 | 
[V:3] D4E4 | 
[V:4] F,2E,D,C,4 | 
[V:1] D3EF2F2- | 
[V:2] B8 | 
[V:3] F8- | 
[V:4] B,,3C,D,_E,D,2- | 
[V:1] F2EDC4 | 
[V:2] z4c4 | 
[V:3] F8- | 
[V:4] D,2B,,4A,,2 | 
[V:1] B,4z2F2 | 
[V:2] d3ef2f2- | 
[V:3] F8 | 
[V:4] B,,8 | 
[V:1] G2B4A2 | 
[V:2] f2edc4 | 
[V:3] z8 | 
[V:4] z8 | 
[V:1] B4G4 | 
[V:2] B3cd_ed2 | 
[V:3] z4G4 | 
[V:4] z8 | 
[V:1] F3GABA2- | 
[V:2] c2F3GAB | 
[V:3] A3Bc2c2- | 
[V:4] z4z2F,,2- | 
[V:1] A2F4E2 | 
[V:2] A4z4 | 
[V:3] c2BAG4 | 
[V:4] F,,G,,A,,B,,C,4 | 
[V:1] F4D4 | 
[V:2] A4B4 | 
[V:3] F4z4 | 
[V:4] F,,4z2G,,2 | 
[V:1] C3B,A,G,C2- | 
[V:2] A3GF2_E2- | 
[V:3] F3GABA2- | 
[V:4] A,,3B,,C,2C,2- | 
[V:1] CA,D4CB, | 
[V:2] E2DCB,3A, | 
[V:3] A2F4E2 | 
[V:4] C,2B,,A,,G,,4 | 
[V:1] A,8 | 
[V:2] C4D4 | 
[V:3] F8- | 
[V:4] F,,8- | 
[V:1] A,8 ||  
[V:2] C8 ||  
[V:3] F8 ||  
[V:4] F,,8 ||  
[V:1]  [K:F] [K:clef=treble][M:2/1]D8 | 
[V:2]  [K:F] [K:clef=treble-8][M:2/1]z4F4 | 
[V:3]  [K:F] [K:clef=treble-8][M:2/1]F8 | 
[V:4]  [K:F] [K:clef=bass][M:2/1]B,,8 | 
[V:1] D4D4- | 
[V:2] B4B3c | 
[V:3] F4F4- | 
[V:4] B,,4B,,4 | 
[V:1] D4D3E | 
[V:2] d2d4cB | 
[V:3] F4F4 | 
[V:4] B,,3C,D,2D,2- | 
[V:1] F2F4ED | 
[V:2] A8 | 
[V:3] F8 | 
[V:4] D,2C,B,,A,,4- | 
[V:1] C8 | 
[V:2] A4c4 | 
[V:3] E8 | 
[V:4] A,,4A,,4 | 
[V:1] z4G4 | 
[V:2] c4c4 | 
[V:3] E8 | 
[V:4] C,4C,4 | 
[V:1] G4G4 | 
[V:2] c3d_e2_e2- | 
[V:3] G4G4 | 
[V:4] C,4C,3D, | 
[V:1] G3AB2B2- | 
[V:2] e2dcB4 | 
[V:3] G4G3A | 
[V:4] _E,2E,4D,C, | 
[V:1] B2AGF4 | 
[V:2] z2d4d2- | 
[V:3] B2B4AG | 
[V:4] B,,4z2B,,2- | 
[V:1] z2F4F2- | 
[V:2] d2d2d4 | 
[V:3] F4z2B2- | 
[V:4] B,,2B,,4B,,2 | 
[V:1] F2F2G4 | 
[V:2] d4G4 | 
[V:3] B2B4B2 | 
[V:4] B,,4_E,4- | 
[V:1] G4F4- | 
[V:2] G4d4 | 
[V:3] B8 | 
[V:4] E,4D,4- | 
[V:1] F4E4 | 
[V:2] D4E4 | 
[V:3] A8 | 
[V:4] D,2C,B,,C,4 | 
[V:1] z2D2E2F2- | 
[V:2] z2F2G2A2- | 
[V:3] B4z4 | 
[V:4] B,,4z4 | 
[V:1] F2D2E2F2- | 
[V:2] A2F2G2A2 | 
[V:3] z8 | 
[V:4] z8 | 
[V:1] F2EDC4 | 
[V:2] F2B4A2 | 
[V:3] z8 | 
[V:4] z8 | 
[V:1] z2F2G2A2- | 
[V:2] B2d2e2f2- | 
[V:3] z8 | 
[V:4] z8 | 
[V:1] A2F2G2A2 | 
[V:2] f2d2e2f2- | 
[V:3] z8 | 
[V:4] z8 | 
[V:1] F2B4A2 | 
[V:2] f2edc4 | 
[V:3] z8 | 
[V:4] z8 | 
[V:1] B8 | 
[V:2] B4z4 | 
[V:3] B8- | 
[V:4] B,,4C,2_E,2- | 
[V:1] z8 | 
[V:2] G4G2F2- | 
[V:3] B8 | 
[V:4] E,2D,C,B,,3C, | 
[V:1] F4G2B2- | 
[V:2] FED4G2- | 
[V:3] B8- | 
[V:4] D,4B,,4 | 
[V:1] B2AGF3G | 
[V:2] G2FED2E2 | 
[V:3] B8 | 
[V:4] B,,8 | 
[V:1] A4F4 | 
[V:2] F4z2F2- | 
[V:3] A8- | 
[V:4] z2F,3E,D,2- | 
[V:1] z2c3BA2- | 
[V:2] F2EDC4 | 
[V:3] A8 | 
[V:4] D,2C,B,,A,,4- | 
[V:1] A2GFE2F2 | 
[V:2] z2c4BA | 
[V:3] A8 | 
[V:4] A,,4C,4- | 
[V:1] G2E2D4 | 
[V:2] G2c4=B2 | 
[V:3] G8 | 
[V:4] C,4G,,4 | 
[V:1] C4z2G2- | 
[V:2] c2_e4dc | 
[V:3] G8 | 
[V:4] z2C,4B,,A,, | 
[V:1] G2FED2CD | 
[V:2] c6G2 | 
[V:3] G8- | 
[V:4] G,,3A,,B,,G,,C,2- | 
[V:1] ECF4E2 | 
[V:2] c2d2c4 | 
[V:3] G8 | 
[V:4] C,2B,,2C,4 | 
[V:1] F4z2C2- | 
[V:2] c8 | 
[V:3] F4z2A2- | 
[V:4] F,,8 | 
[V:1] C2B,A,B,2C2- | 
[V:2] z8 | 
[V:3] A2GFG2A2- | 
[V:4] z4z2F,,2 | 
[V:1] CF,A,2G,4 | 
[V:2] z8 | 
[V:3] AGF4E2 | 
[V:4] F,,4z4 | 
[V:1] F,4z2A2- | 
[V:2] z8 | 
[V:3] F4z2c2- | 
[V:4] z2F,,2F,,4 | 
[V:1] A2GFG2A2- | 
[V:2] z8 | 
[V:3] c2BAB2c2- | 
[V:4] C,4z2F,,2 | 
[V:1] AGF4E2 | 
[V:2] z8 | 
[V:3] cFA2G4 | 
[V:4] F,,4C,4 | 
[V:1] F8 | 
[V:2] z8 | 
[V:3] F8 | 
[V:4] D,2B,,4A,,2 | 
[V:1] z8 | 
[V:2] z4A4 | 
[V:3] z8 | 
[V:4] B,,2G,,4F,,2 | 
[V:1] z8 | 
[V:2] B6AG | 
[V:3] z8 | 
[V:4] G,,2D,2E,2G,2- | 
[V:1] z8 | 
[V:2] A4z2d2- | 
[V:3] z8 | 
[V:4] G,2F,2G,2D,2 | 
[V:1] z8 | 
[V:2] d2c2B2A2- | 
[V:3] z8 | 
[V:4] E,4D,4 | 
[V:1] z8 | 
[V:2] AG/F/E2F2D2- | 
[V:3] z8 | 
[V:4] C,4D,4 | 
[V:1] z8 | 
[V:2] D2F2G2B2- | 
[V:3] z8 | 
[V:4] B,,4z2B,,2 | 
[V:1] z8 | 
[V:2] BAGFG2E2- | 
[V:3] z8 | 
[V:4] C,2_E,3D,C,B,, | 
[V:1] z8 | 
[V:2] E2A4GF | 
[V:3] z8 | 
[V:4] C,2A,,4D,2- | 
[V:1] z8 | 
[V:2] GFB4A2 | 
[V:3] z8 | 
[V:4] D,2C,B,,C,4 | 
[V:1] z2F2F2F2- | 
[V:2] B4d4 | 
[V:3] z4z2B2 | 
[V:4] B,,4z2B,,2 | 
[V:1] F2F2F2F2 | 
[V:2] d2d2B2f2- | 
[V:3] B2B4B2 | 
[V:4] B,,2B,,2B,,2B,,2 | 
[V:1] B8 | 
[V:2] f2f2f4 | 
[V:3] B2B2B4 | 
[V:4] B,,4B,,4 | 
[V:1] A4z2F2 | 
[V:2] f8 | 
[V:3] c8 | 
[V:4] F,8 | 
[V:1] F2F2G2B2- | 
[V:2] d4d2d2 | 
[V:3] z2B2B2B2 | 
[V:4] z2B,,2B,,2B,,2 | 
[V:1] B2AGF4 | 
[V:2] d2d2d2d2 | 
[V:3] B4B4 | 
[V:4] B,,4B,,4 | 
[V:1] z2F2F2F2- | 
[V:2] dcBAB2B2 | 
[V:3] d4z2d2 | 
[V:4] B,,4z2B,,2 | 
[V:1] F2F2F2F2 | 
[V:2] B2B4B2 | 
[V:3] d2d4d2 | 
[V:4] B,,2B,,4B,,2 | 
[V:1] G4z2B2- | 
[V:2] G4G4 | 
[V:3] B8 | 
[V:4] _E,8 | 
[V:1] BAG4F2 | 
[V:2] G8- | 
[V:3] B8 | 
[V:4] _E,8 | 
[V:1] _E2c3BA2 | 
[V:2] G8 | 
[V:3] z2_e3dc2- | 
[V:4] C,4C,4 | 
[V:1] G2F4E2 | 
[V:2] c8- | 
[V:3] c2BAG4 | 
[V:4] C,4C,4 | 
[V:1] F8 | 
[V:2] c8 | 
[V:3] F8 | 
[V:4] F,,8 | 
[V:1] [M:3/1]C4C4D4 | 
[V:2] [M:3/1]F4F4B4 | 
[V:3] [M:3/1]z12 | 
[V:4] [M:3/1]z12 | 
[V:1] C4D2F4E2 | 
[V:2] A6GFG4 | 
[V:3] z12 | 
[V:4] z12 | 
[V:1] F12 | 
[V:2] F12 | 
[V:3] C4C4D4 | 
[V:4] F,,4F,,4B,,4 | 
[V:1] z4z4G4 | 
[V:2] z12 | 
[V:3] C4D2F4E2 | 
[V:4] A,,6G,,F,,G,,4 | 
[V:1] A6A2A4 | 
[V:2] F4c6c2 | 
[V:3] F12 | 
[V:4] F,,12 | 
[V:1] G4E2C2D4 | 
[V:2] c4c2c2B4 | 
[V:3] z4z4G4 | 
[V:4] z12 | 
[V:1] C8z4 | 
[V:2] c8z4 | 
[V:3] A6A2A4 | 
[V:4] F,,4C,6C,2 | 
[V:1] z4z4F4 | 
[V:2] z12 | 
[V:3] G4E2C2D4 | 
[V:4] C,4C,2C,2B,,4 | 
[V:1] E6F2G4 | 
[V:2] z4z4B4 | 
[V:3] C8z4 | 
[V:4] C,8z4 | 
[V:1] A6GFE4 | 
[V:2] A6B2c4 | 
[V:3] z12 | 
[V:4] z12 | 
[V:1] z2D4E2F4 | 
[V:2] d6cBA4 | 
[V:3] z4z4F4 | 
[V:4] z12 | 
[V:1] G6A2B4 | 
[V:2] G8d4 | 
[V:3] E6F2G4 | 
[V:4] z4z4B,,4 | 
[V:1] c6BAG4 | 
[V:2] c6d2e4 | 
[V:3] A6GFE4 | 
[V:4] A,,6B,,2C,4 | 
[V:1] z2F4G2A4 | 
[V:2] f6edc4 | 
[V:3] D6E2F4 | 
[V:4] D,6C,B,,A,,4 | 
[V:1] B2G4FED4 | 
[V:2] B6A2G2F2 | 
[V:3] G3AB2c4B2 | 
[V:4] G,,8G,,4 | 
[V:1] z2C4D2E4 | 
[V:2] E2C2c8 | 
[V:3] c6BAG4 | 
[V:4] A,,6B,,2C,4 | 
[V:1] F6EDE4 | 
[V:2] B4c8- | 
[V:3] F4G8 | 
[V:4] D,4C,8 | 
[V:1] F12- | 
[V:2] c12 | 
[V:3] F12- | 
[V:4] F,,12- | 
[V:1] F12 |]  
[V:2] c12 |]  
[V:3] F12 |]  
[V:4] F,,12 |]  



